!!!CDT:
!!!PTL: Musiche di Sigismondo d' India 
!!!PPP: Milan
!!!PPR: Simon Tini & Filippo Lomazzo
!!!PDT: 1609
!!!RISM: I 24
!!!rime:
!!!AGN: Madrigal
!!!SCT: Tsg16040b
!!!SCA: Tsg16040b
!!!voices:
!!!COM: D'India, Sigismondo
!!!OTL: Forsennata gridava: "O tu che porte
**kern	**fb	**kern	**text
*part2	*part2	*part1	*part1
*staff2	*staff2	*staff1	*staff1
*I"Basso continuo	*	*I"Canto	*
*I'Bc	*	*I'C	*
*oclefF4	*	*oclefC1	*
*clefF4	*	*clefG2	*
*k[b-]	*	*k[b-]	*
*F:	*	*F:	*
*omet(C)	*	*omet(C)	*
*M4/4	*	*M4/4	*
=1	=	=	=
!	!	!LO:TX:a:t=Aria da cantar ottave.	!
[1G	.	4g	For-
.	.	4g	-sen-
.	.	4g	-na-
.	.	8g	-ta
.	.	8g	gri-
=2	=2	=2	=2
2G]	.	4.g	-da-
.	.	16aL	.
.	.	16b-yJ	.
[2GG	.	2g	-va:
=3	=3	=3	=3
4GG]	.	8r	.
.	.	8dd	"O
4F#X	.	8.dd	tu,
.	.	16a	che
2G	.	8bnX	por-
.	.	8bnX	-te
.	.	8.bnX	Par-
.	.	16cc	-te
=4	=4	=4	=4
2E	.	4cc	te-
.	.	8bnX	-co,
.	.	8bni	di
2D	#	4dd	me
.	.	[4ee	par-
=5	=5	=5	=5
2C	.	4ee]	.
.	.	8a	-te
.	.	8a	ne
2D	4:3	2a	las-
=6	=6	=6	=6
1GG	.	1g	-si;
=7	=7	=7	=7
2C	.	8r	.
.	.	8ee-X	O
.	.	8ee-i	pren-
.	.	8ee-i	-di
2GG	11:10	8.ee-i	l'u-
.	.	16dd	-no, o
.	.	8dd	ren-
.	.	8cc	-di
=8	=8	=8	=8
1GG	.	8.cc	l'al-
.	.	16b-y	-tro, o
.	.	8b-y	mor-
.	.	8a	-te
.	.	8a	Da' in-
.	.	8g	-sie-
.	.	8.g	-m'ad am-
.	.	16f	-bi: Ar-
=9	=9	=9	=9
1AA	#:11:#	8.f	-re-
.	.	16e	-st'ar-
.	.	8e	-re-
.	.	8e	-st'i
.	.	2e	pas-
=10	=10	=10	=10
1DDl	.	1dl	-si."
==	==	==	==
*-	*-	*-	*-
!!!system-decoration: [*]
!!!RDF**kern: i = editorial accidental
!!!RDF**kern: l = terminal long
!!!ENC: Emiliano Ricciardi
!!!END:
!!!EED: Ricciardi, Emiliano
!!!EEV: 2020/01/19
!!!YEC: Copyright 2018 Emiliano Ricciardi, All Rights Reserved
!!!ONB: Translated from MusicXML on 2020/01/19
!!!ONB: LYRICS FOR ANOTHER VERSE: Sol che ti sian le voci ultime porte,Non dico i baci altra più degna havrassi,Quelli da te che temi empio se resti,Potrai negar, poiche fuggir potesti.
!!@@BEGIN:	VERSEDATA
!!@CATALOGNUM:	Tsg16040
!!@LAST_MODIFIED: 2020/07/12
!!@TITLE:		Forsennata gridava: "O tu che porte
!!@CANTO:		XVI
!!@OTTAVA:	40
!!@MANUSRC:	G-Al, G-Au, G-Br<sub>1</sub>, G-Br<sub>2</sub>, G-Cv, G-Es<sub>1</sub>, G-Es<sub>2</sub>, G-Es<sub>3</sub>, G-F, G-Fr, G-Fr<sub>1</sub>, G-Fr<sub>2</sub>, G-Mc<sub>1</sub>, G-Mg, G-Mr, G-Mt, G-N, G-Ol
!!@PRINTSRC:	G-1580CM, G-1581B, G-1581CV, G-1581R, G-1581MR, G-1581P, G-1581V, G-1581V<sub>bis</sub>, G-1582C, G-1582M, G-1582MC, G-1582P, G-1582SC, G-1582SC<sub>bis</sub>, G-1583S, G-1584O, G-1584S, G-1585C, G-1585S, G-1588S, G-1589S, G-1590B, G-1590S, G-1592S, G-1593S, G-1594C, G-1595C, G-1597C, G-1598C, G-1599C, G-1600C, G-1600S, G-1601C, G-1601R, G-1602C, G-1604C, G-1604Cl, G-1604F, G-1604P, G-1606B, G-1606B<sub>bis</sub>, G-1606L, G-1607ZR, G-1608DP, G-1609GC, G-1610M, G-1611S, G-1611V, G-1612P, G-1613M, G-1613P, G-1613V, G-1615P, G-1616M, G-1617P, G-1619B, G-1619V, G-1620M, G-1620S, G-1621R, G-1624I, G-1624MT, G-1625C, G-1625S, G-1625SS, G-1626C, G-1626Co, G-1627M, G-1628T, G-1628Tu, G-1630L, G-1630T, G-1632FT, G-1639CF, G-1642M, G-1643I, G-1644P, G-1644S
!!@@BEGIN:	VERSES
!!@ABOUTIT:
!!@ABOUTEN:
!!@EDITOR:	Angelo Solerti
!!@EDITION_TITLE: Gerusalemme liberata. Poema eroico di Torquato Tasso. Edizione critica sui manoscritti e le prime stampe.
!!@EDITION_LOC:	Florence
!!@EDITION_PUB:	G. Barbera
!!@EDITION_DATE:  1895
!!@EDITION_VOL:
!!@EDITION_PAGE:
!!@TRANSLATOR:	Emiliano Ricciardi and Amyrose McCue Gill
!!@VERSE:
!!	Forsennata gridava: "o tu che porte
!!	Teco parte di me, parte ne lassi;
!!	O prendi l’una o rendi l’altra, o morte
!!	Dà insieme ad ambe: arresta, arresta i passi,
!!	Sol che ti sian le voci ultime porte,
!!	Non dico i baci; altra più degna avrassi
!!	Questi da te. Che temi, empio, se resti?
!!	Potrai negar, poi che fuggir potesti.
!!@TVERSE:
!!	Raving, she cried: "O you who bear
!!	With you a part of me, a part leave [behind];
!!	Either take one or return the other, or death
!!	Give together to both: halt, halt your steps,
!!	May it be only that my last words be borne,
!!	I do not say kisses; another more worthy [woman] will have
!!	These from you. What do you fear, wicked [man], if you stay?
!!	You will be able to refuse, since you were able to flee.
!!@@END:		VERSES
!!@OTHER_CRIT_ED:  Torquato Tasso, <i>Gerusalemme liberata</i>, ed. Lanfranco Caretti, 2 vols. (Bari: Laterza, 1967).
!!@ATTRIBUTION_ABOUT:
!!@DATING:	mid-1560s through 1570s
!!@DEDICATEE:	Duke Alfonso II d'Este
!!@COMMENTARY:
!!@@END:		VERSEDATA
!!@@BEGIN: SETTING
!!@CATALOGNUM:	Tsg16040b
!!@CANTO:		XVI
!!@OTTAVA:	40
!!@TITLE:	Forsennata gridava: "O tu che porte
!!@COMPOSER:	D'India, Sigismondo
!!@PARTS:		1 of 2
!!@PRINCEPSTITLE:	Musiche di Sigismondo d' India 
!!@PRINCEPSLOC:	Milan
!!@NORMLOC:	Milan
!!@NORMPUB:	Simon Tini & Filippo Lomazzo
!!@NORMPUBSHORT:	Tini & Lomazzo
!!@PRINCEPSPUB:	Tini & Lomazzo
!!@PRINCEPSYEAR:	1609
!!@PRINCEPSRISM:	I 24
!!@OVOICES:	1+bc
!!@EXTANTVOICES:	1+bc
!!@OMENSURATION:	C
!!@OCLEFS:	C1,F4
!!@OTIME:		
!!@OKEYSIG:	b-
!!@FINAL:		D
!!@TIMPEDITOR:	Ricciardi, Emiliano
!!@REPRINTS:	
!!@@END: SETTING
